X:1
T:Jöddera-Johan
O:Blekinge
N:Nertecknat av Ingmar Söderström
Z:Andy Davey 2019
R:Polka
M:2/4
L:1/8
K:D
   F2 FF | GF EF | G2 GG | G2 E2 | A2 ^GA | B2 c2 | d2 cB | A2 D2 | F2 FF | GF EF | G2 GG | G2 E2 | A2 ^GA | B2 c2 | d2 d2 | d4 :|]
|: D2 F2 | A2 d2 | c2 EE | E2 ED | C2 E2  | G2 B2 | A2 D2 | D2 FE | D2 F2 | A2 B2 | A2 C2 | C2 B2 | A2 C2  | E2 FE | D4    | D4 :|

